assets/img/illustration/scenary.svg

<?xml version="1.0" encoding="UTF-8"?>
<svg width="420px" height="420px" viewBox="0 0 420 420" version="1.1" xmlns="http://www.w3.org/2000/svg" xmlns:xlink="http://www.w3.org/1999/xlink">
    <title>5. Elements_Illustrations/2.Vector/Scenery</title>
    <defs>
        <polygon id="path-1" points="-2.4994445e-15 0 366 0 366 133 -2.4994445e-15 133"></polygon>
        <polygon id="path-3" points="0 -1.07615513e-14 76 -1.07615513e-14 76 23 0 23"></polygon>
    </defs>
    <g id="5.-Elements_Illustrations/2.Vector/Scenery" stroke="none" stroke-width="1" fill="none" fill-rule="evenodd">
        <g id="Group" opacity="0.590729469" transform="translate(26.000000, 51.000000)" fill="#B8DDFF">
            <rect id="Rectangle" x="165" y="0" width="184" height="33" rx="16.5"></rect>
            <rect id="Rectangle" x="0" y="17" width="184" height="33" rx="16.5"></rect>
            <rect id="Rectangle" x="215" y="50" width="85" height="33" rx="16.5"></rect>
        </g>
        <g id="Group-25" transform="translate(27.000000, 239.000000)">
            <g id="Group-3">
                <mask id="mask-2" fill="white">
                    <use xlink:href="#path-1"></use>
                </mask>
                <g id="Clip-2"></g>
                <path d="M-2.4994445e-15,133 L18.1503601,114.570856 C21.3171581,111.355634 25.7680678,109.746516 30.257753,110.193242 L36.9113416,110.855798 C41.4469552,111.307421 45.8952296,109.390567 48.6833068,105.783235 L62.7042558,87.6433705 C63.5147784,86.594732 65.0213791,86.4007489 66.0702021,87.2109578 L68.2815396,88.9180087 C69.3954906,89.7779375 70.9992185,89.5477945 71.8266819,88.4087561 L96.873072,53.9392846 C97.2261934,53.4530086 97.6041612,52.9859426 98.0054696,52.5388399 L140.122904,5.60736924 C146.668071,-1.6856405 158.022164,-1.89393688 164.829725,5.15423987 L175.921047,16.6372837 L189.640074,32.2625251 C190.813882,33.5993132 192.777131,33.9010228 194.298037,32.9778141 L197.716312,30.9027603 C200.878216,28.9836463 204.950405,29.5328256 207.491899,32.2207151 L236.656407,63.0681651 C239.418885,65.9899643 243.024637,67.9749948 246.969582,68.7464071 L282.30016,75.6537107 C285.4199,76.2639098 288.276493,77.819541 290.482184,80.1096711 L318.884356,109.600746 C321.257949,112.065649 324.667565,113.244614 328.056099,112.772652 L329.658321,112.549289 C333.006197,112.082599 336.409036,112.860792 339.222337,114.736966 L366.000075,132.593577 L-2.4994445e-15,133 Z" id="Fill-1" fill="#3CA1FF" mask="url(#mask-2)"></path>
            </g>
            <path d="M49.7869006,112.911032 C52.8752724,113.444375 55.8544957,111.528818 56.5995858,108.531285 L57.1362326,106.370689 C57.6270218,104.394712 58.5714595,102.55524 59.896401,100.994002 L64.1672148,95.9608164 C65.0472246,94.9235961 65.5103477,93.604786 65.4686591,92.2539008 L65.3742911,89.1907256 C65.3526888,88.4828348 65.5781865,87.7958303 66,87.2333965 C64.9937873,86.757864 63.7533601,87.0193137 63.0431369,87.9233849 L48.9281141,105.885086 C46.3108242,109.216052 42.2397369,111.089463 38,110.964519 L39.9400387,111.210677 L49.7869006,112.911032 Z" id="Fill-4" fill="#0068C9"></path>
            <g id="Group-8" transform="translate(0.000000, 110.000000)">
                <mask id="mask-4" fill="white">
                    <use xlink:href="#path-3"></use>
                </mask>
                <g id="Clip-7"></g>
                <path d="M69.7975689,18.8764003 L56.3193824,17.4008464 C55.1397028,17.2717307 54.075774,16.6276667 53.4083286,15.6386632 C51.9009394,13.4054537 49.5900603,11.8515216 46.9650009,11.3059036 L32.3274288,8.2627866 C29.3693983,7.64749916 28.1074155,4.09549208 30.0067785,1.72900191 C30.6238648,0.959987262 31.4908672,0.464349562 32.4315292,0.297370015 L30.205584,0.0739733434 C25.7236285,-0.375849108 21.2807576,1.24245153 18.1194119,4.47450914 L-7.5162762e-05,23.0001515 L76,22.9149578 L74.873686,21.5829078 C73.5868995,20.06116 71.7705914,19.0926029 69.7975689,18.8764003" id="Fill-6" fill="#0068C9" mask="url(#mask-4)"></path>
            </g>
            <path d="M94.5069641,78.3908415 C98.764449,77.5655594 102.483064,74.9891979 104.760551,71.2867648 L113.48414,57.1073299 C115.714556,53.4819835 119.79769,51.4361606 124.025802,51.8257512 L131.706673,52.532758 C133.50893,52.6990236 134.953447,51.0613072 134.570477,49.2860438 L132.705709,40.6458994 C131.638514,35.7006307 132.180396,30.5422396 134.2519,25.9287464 L138.679594,16.0676833 C139.081393,15.1732498 139.574321,14.3230279 140.150848,13.5302431 L150,0 C146.37854,0.614049185 142.922769,2.4134967 140.261935,5.38700626 L98.1321903,52.4692747 C97.7311447,52.9174362 97.3530698,53.3863808 96.9998484,53.8738414 L73,87 L80.050871,82.6638681 C82.3592367,81.2438085 84.9040875,80.2526386 87.562662,79.7372152 L94.5069641,78.3908415 Z" id="Fill-9" fill="#0068C9"></path>
            <path d="M301.369314,128.776565 L297.207734,128.356131 C294.370173,128.069352 291.710031,126.854474 289.649101,124.90318 L283.357364,118.947467 C281.537784,117.224923 279.143202,116.222694 276.626809,116.130596 L270.375171,115.901098 C263.218661,115.638654 256.696545,111.766767 253.094079,105.641457 L248.316642,97.5184305 C247.485158,96.1043791 246.323426,94.9085941 244.928667,94.0310362 L221.24916,79.1286497 C220.604174,78.7228166 219.801818,79.343921 220.044303,80.0612422 L224.836494,94.233204 C225.949426,97.524795 225.836696,101.102042 224.518351,104.318756 L223.3256,107.228849 C222.115825,110.181996 223.549548,113.546592 226.53086,114.750239 L248.980164,123.811474 C251.812429,124.954471 254.314068,126.775104 256.261132,129.109768 L259.505735,133 L308,132.946837 C306.57876,130.606184 304.1263,129.054733 301.369314,128.776565" id="Fill-11" fill="#0068C9"></path>
            <path d="M183.306348,113.280675 L175.306265,110.958003 C169.420192,109.249023 164.14231,105.912263 160.085697,101.335398 L156.768085,97.5926293 C152.991511,93.3312166 150.412524,88.1522604 149.293122,82.5800179 L148.430828,78.2875464 C147.912099,75.7055524 146.166838,73.5351806 143.750237,72.4660854 L139.212483,70.4581172 C136.958267,69.4608688 134.311244,70.1318131 132.811064,72.0810315 L116.912389,92.7373579 C115.875306,94.0841111 115.289293,95.7208708 115.235916,97.4171286 L115.010757,104.594324 C114.785223,111.77339 110.225292,118.105262 103.467904,120.622145 L99.8319131,121.976756 C96.7526161,123.12406 94.0601107,125.111073 92.0630031,127.711028 L88,133 L206,132.870152 L205.816941,132.480233 C201.433303,123.157738 193.232495,116.163154 183.306348,113.280675" id="Fill-13" fill="#0068C9"></path>
            <path d="M330.309864,113.130389 L328.717134,113.351555 C327.435392,113.528786 326.151029,113.468468 324.921304,113.193685 L322.833093,113.766708 C320.349318,114.448452 319.353863,117.418933 320.929377,119.447037 C321.67073,120.401702 321.792355,121.696308 321.241486,122.771237 L316,133 L332.856883,132.981756 C333.743812,131.757893 333.879658,130.016487 332.817963,128.622095 C331.466613,126.847178 331.130928,124.504452 331.930286,122.424593 L333.280139,118.911993 C333.815664,117.518719 334.727666,116.300442 335.915851,115.390457 L336.346966,115.060941 C336.771345,114.735893 336.97343,114.300263 337,113.862025 C334.880727,113.075656 332.582572,112.815394 330.309864,113.130389" id="Fill-15" fill="#0068C9"></path>
            <path d="M183.795205,51.309375 L184.622306,51.5544832 C188.900325,52.8218812 192.447495,55.8593375 194.386724,59.916821 L198.933354,69.4285277 L202.121255,76.5170569 C202.463735,77.2784007 203.581086,77.0981519 203.67137,76.2666695 L204.918177,64.8106891 C205.162166,62.5692688 204.858485,60.3022065 204.033996,58.207097 L199.864169,47.6135204 C199.13817,45.7695525 198.897539,43.7664529 199.166151,41.800308 L199.782093,37.2865461 C200.032797,35.4482346 200.888998,33.7494462 202.212285,32.4628167 L203.071843,31.6279404 C203.44678,31.2632948 203.594517,30.7745868 203.545272,30.3088812 C201.512401,29.7176048 199.267626,29.9653526 197.357124,31.1373469 L193.969256,33.2151103 C192.462044,34.1386026 190.516473,33.836931 189.353234,32.4982631 L187.65986,30.5498414 L185.794499,30.8435941 C183.885489,31.1430032 182.69315,33.0963271 183.282977,34.9557556 L184.411148,38.5098246 C184.895022,40.0347747 184.819662,41.6845415 184.198869,43.1574532 L182.200695,47.8993543 C181.614972,49.2893063 182.360743,50.8843951 183.795205,51.309375" id="Fill-17" fill="#0068C9"></path>
            <path d="M207.25848,32.2555501 C204.719458,29.5643576 200.651608,29.0149576 197.492781,30.9365377 L194.077457,33.0142274 C192.558406,33.9376869 190.596692,33.636026 189.424025,32.2974056 L175.718349,16.6555324 L164.638196,5.15998862 C157.836883,-1.89586046 146.494215,-1.68771442 139.955417,5.61361123 L106,43.5282419 C106.189176,43.831034 106.472752,44.0810355 106.838693,44.2216849 C107.569071,44.5033608 108.389712,44.4109772 109.039229,43.974323 L121.23112,35.7729165 C122.722339,34.769894 124.685559,34.8347511 126.107576,35.933551 L130.368363,39.2265571 C131.533508,40.1270149 133.230075,39.7193956 133.861539,38.3875626 L136.205743,33.4414547 C136.471643,32.8803653 137.232484,32.7940149 137.616854,33.2808202 L138.882416,34.884148 C139.467245,35.6243485 140.626371,35.4806825 141.012998,34.6198176 L144.606967,26.6227865 C145.078591,25.5733835 146.599146,25.6849981 146.913938,26.7917166 L149.505237,35.9113035 C149.686139,36.5481851 150.452622,36.7981866 150.97201,36.3898131 L156.522053,32.0300586 C157.214445,31.4859377 158.178002,31.4520008 158.906499,31.9463477 L161.78175,33.8965856 C162.987888,34.7144638 164.630298,34.3611434 165.395276,33.1190545 L168.139646,28.6646539 C168.929823,27.3822179 170.581635,26.9417929 171.902483,27.6620084 L189.130671,37.0553526 C190.390591,37.7423853 191.393262,38.8212002 191.987869,40.1292774 L194.158317,44.905324 C194.458818,45.5667156 195.415605,45.5063834 195.630731,44.8121862 L196.376905,42.4056862 C196.568714,41.7865271 197.140003,41.364956 197.786135,41.364956 L198.748564,41.364956 C199.692188,41.364956 200.593313,41.7597547 201.234556,42.454329 L201.341743,42.5700914 C201.95666,43.2360079 203.045457,43.0802754 203.450512,42.2688075 L205.188449,38.7834926 C205.505498,38.1473651 206.366757,38.0414067 206.828226,38.5810027 L207.918151,39.8558972 C208.245731,40.2390066 208.868545,40.0795033 208.9731,39.5862877 L209.161147,38.6960109 C209.257052,38.2427654 209.818186,38.0794914 210.141253,38.4109413 L219.892284,48.4264612 C220.684717,49.2401915 221.7344,49.752261 222.861935,49.8759419 L224,50 L207.25848,32.2555501 Z" id="Fill-19" fill="#B8DDFF"></path>
            <path d="M140.203196,5.35797292 L106,43.1482942 C106.190557,43.4504694 106.476581,43.6996512 106.844813,43.8398395 C107.580521,44.1205919 108.40715,44.0285111 109.061407,43.5929127 L121.342265,35.4183959 C122.844366,34.4186619 124.821911,34.4833064 126.254305,35.5785037 L130.546184,38.861089 C131.097775,39.2827813 131.766428,39.4128219 132.387347,39.2989424 C131.623226,34.7291056 132.231643,30.0281008 134.156909,25.7890031 L138.610931,15.9814622 C139.015154,15.0914734 139.511434,14.2458337 140.091438,13.4576976 L150,0 C146.356316,0.610739759 142.88008,2.40048913 140.203196,5.35797292" id="Fill-21" fill="#3CA1FF"></path>
            <path d="M203.990565,30.3171527 C201.899915,29.7099263 199.591337,29.9645196 197.62615,31.1685096 L194.142373,33.3036834 C192.592323,34.2526926 190.591453,33.9426855 189.394768,32.5674166 L187.653264,30.5651583 L185.735268,30.8666402 C184.10925,31.1216211 182.991986,32.542616 183,34.1085393 L189.095885,37.4566158 C190.380815,38.1626569 191.404079,39.2713197 192.01067,40.6155879 L194.22448,45.5237751 C194.531421,46.2034656 195.507108,46.1414642 195.726571,45.4280604 L196.488167,42.9549789 C196.683842,42.3190769 197.266262,41.885842 197.925417,41.885842 L198.907243,41.885842 C199.111743,41.885842 199.313172,41.9075425 199.511917,41.9435808 L200.120426,37.488004 C200.378257,35.5988983 201.258409,33.8527834 202.619691,32.5309907 L203.503296,31.6726586 C203.889274,31.2979376 204.04121,30.7957261 203.990565,30.3171527" id="Fill-23" fill="#3CA1FF"></path>
        </g>
    </g>
</svg>

<?xml version="1.0" encoding="UTF-8"?>
<svg version="1.1" viewBox="0 0 420 420" xmlns="http://www.w3.org/2000/svg" xmlns:xlink="http://www.w3.org/1999/xlink">
<title>5. Elements_Illustrations/2.Vector/Scenery</title>
<defs>
<polygon id="b" points="-2.4994e-15 0 366 0 366 133 -2.4994e-15 133"/>
<polygon id="a" points="0 -1.0762e-14 76 -1.0762e-14 76 23 0 23"/>
</defs>
<g fill="none" fill-rule="evenodd">
<g transform="translate(26 51)" fill="#B8DDFF" opacity=".59073">
<rect id="Rectangle" x="165" width="184" height="33" rx="16.5"/>
<rect id="e" y="17" width="184" height="33" rx="16.5"/>
<rect x="215" y="50" width="85" height="33" rx="16.5"/>
</g>
<g transform="translate(27 239)">
<mask id="d" fill="white">
<use xlink:href="#b"/>
</mask>
<path d="m-2.4994e-15 133 18.15-18.429c3.1668-3.2152 7.6177-4.8243 12.107-4.3776l6.6536 0.66256c4.5356 0.45162 8.9839-1.4652 11.772-5.0726l14.021-18.14c0.81052-1.0486 2.3171-1.2426 3.3659-0.43241l2.2113 1.7071c1.114 0.85993 2.7177 0.62979 3.5451-0.50925l25.046-34.469c0.35312-0.48628 0.73109-0.95334 1.1324-1.4004l42.117-46.931c6.5452-7.293 17.899-7.5013 24.707-0.45313l11.091 11.483 13.719 15.625c1.1738 1.3368 3.1371 1.6385 4.658 0.71529l3.4183-2.0751c3.1619-1.9191 7.2341-1.3699 9.7756 1.318l29.165 30.847c2.7625 2.9218 6.3682 4.9068 10.313 5.6782l35.331 6.9073c3.1197 0.6102 5.9763 2.1658 8.182 4.456l28.402 29.491c2.3736 2.4649 5.7832 3.6439 9.1717 3.1719l1.6022-0.22336c3.3479-0.46669 6.7507 0.3115 9.564 2.1877l26.778 17.857-366 0.40642z" fill="#3CA1FF" mask="url(#d)"/>
<path d="m49.787 112.91c3.0884 0.53334 6.0676-1.3822 6.8127-4.3797l0.53665-2.1606c0.49079-1.976 1.4352-3.8154 2.7602-5.3767l4.2708-5.0332c0.88001-1.0372 1.3431-2.356 1.3014-3.7069l-0.094368-3.0632c-0.021602-0.70789 0.2039-1.3949 0.62571-1.9573-1.0062-0.47553-2.2466-0.21408-2.9569 0.68999l-14.115 17.962c-2.6173 3.331-6.6884 5.2044-10.928 5.0794l1.94 0.24616 9.8469 1.7004z" fill="#0068C9"/>
<g transform="translate(0 110)">
<mask id="c" fill="white">
<use xlink:href="#a"/>
</mask>
<path d="m69.798 18.876-13.478-1.4756c-1.1797-0.12912-2.2436-0.77318-2.9111-1.7622-1.5074-2.2332-3.8183-3.7871-6.4433-4.3328l-14.638-3.0431c-2.958-0.61529-4.22-4.1673-2.3207-6.5338 0.61709-0.76901 1.4841-1.2647 2.4248-1.4316l-2.2259-0.2234c-4.482-0.44982-8.9248 1.1685-12.086 4.4005l-18.119 18.526 76-0.085194-1.1263-1.332c-1.2868-1.5217-3.1031-2.4903-5.0761-2.7065" fill="#0068C9" mask="url(#c)"/>
</g>
<path d="m94.507 78.391c4.2575-0.82528 7.9761-3.4016 10.254-7.1041l8.7236-14.179c2.2304-3.6253 6.3136-5.6712 10.542-5.2816l7.6809 0.70701c1.8023 0.16627 3.2468-1.4715 2.8638-3.2467l-1.8648-8.6401c-1.0672-4.9453-0.52531-10.104 1.5462-14.717l4.4277-9.8611c0.4018-0.89443 0.89473-1.7447 1.4713-2.5374l9.8492-13.53c-3.6215 0.61405-7.0772 2.4135-9.7381 5.387l-42.13 47.082c-0.40105 0.44816-0.77912 0.91711-1.1323 1.4046l-24 33.126 7.0509-4.3361c2.3084-1.4201 4.8532-2.4112 7.5118-2.9267l6.9443-1.3464z" fill="#0068C9"/>
<path d="m301.37 128.78-4.1616-0.42043c-2.8376-0.28678-5.4977-1.5017-7.5586-3.453l-6.2917-5.9557c-1.8196-1.7225-4.2142-2.7248-6.7306-2.8169l-6.2516-0.2295c-7.1565-0.26244-13.679-4.1343-17.281-10.26l-4.7774-8.123c-0.83148-1.4141-1.9932-2.6098-3.388-3.4874l-23.68-14.902c-0.64499-0.40583-1.4473 0.21527-1.2049 0.93259l4.7922 14.172c1.1129 3.2916 1.0002 6.8688-0.31814 10.086l-1.1928 2.9101c-1.2098 2.9531 0.22395 6.3177 3.2053 7.5214l22.449 9.0612c2.8323 1.143 5.3339 2.9636 7.281 5.2983l3.2446 3.8902 48.494-0.053163c-1.4212-2.3407-3.8737-3.8921-6.6307-4.1703" fill="#0068C9"/>
<path d="m183.31 113.28-8.0001-2.3227c-5.8861-1.709-11.164-5.0457-15.221-9.6226l-3.3176-3.7428c-3.7766-4.2614-6.3556-9.4404-7.475-15.013l-0.86229-4.2925c-0.51873-2.582-2.264-4.7524-4.6806-5.8215l-4.5378-2.008c-2.2542-0.99725-4.9012-0.3263-6.4014 1.6229l-15.899 20.656c-1.0371 1.3468-1.6231 2.9835-1.6765 4.6798l-0.22516 7.1772c-0.22553 7.1791-4.7855 13.511-11.543 16.028l-3.636 1.3546c-3.0793 1.1473-5.7718 3.1343-7.7689 5.7343l-4.063 5.289 118-0.12985-0.18306-0.38992c-4.3836-9.3225-12.584-16.317-22.511-19.2" fill="#0068C9"/>
<path d="m330.31 113.13-1.5927 0.22117c-1.2817 0.17723-2.5661 0.11691-3.7958-0.15787l-2.0882 0.57302c-2.4838 0.68174-3.4792 3.6522-1.9037 5.6803 0.74135 0.95466 0.86298 2.2493 0.31211 3.3242l-5.2415 10.229 16.857-0.018244c0.88693-1.2239 1.0228-2.9653-0.03892-4.3597-1.3514-1.7749-1.687-4.1176-0.88768-6.1975l1.3499-3.5126c0.53552-1.3933 1.4475-2.6116 2.6357-3.5215l0.43112-0.32952c0.42438-0.32505 0.62646-0.76068 0.65303-1.1989-2.1193-0.78637-4.4174-1.0466-6.6901-0.73164" fill="#0068C9"/>
<path d="m183.8 51.309 0.8271 0.24511c4.278 1.2674 7.8252 4.3049 9.7644 8.3623l4.5466 9.5117 3.1879 7.0885c0.34248 0.76134 1.4598 0.5811 1.5501-0.25039l1.2468-11.456c0.24399-2.2414-0.059692-4.5085-0.88418-6.6036l-4.1698-10.594c-0.726-1.844-0.96663-3.8471-0.69802-5.8132l0.61594-4.5138c0.2507-1.8383 1.1069-3.5371 2.4302-4.8237l0.85956-0.83488c0.37494-0.36465 0.52267-0.85335 0.47343-1.3191-2.0329-0.59128-4.2776-0.34353-6.1881 0.82847l-3.3879 2.0778c-1.5072 0.92349-3.4528 0.62182-4.616-0.71685l-1.6934-1.9484-1.8654 0.29375c-1.909 0.29941-3.1013 2.2527-2.5115 4.1122l1.1282 3.5541c0.48387 1.525 0.40851 3.1747-0.21228 4.6476l-1.9982 4.7419c-0.58572 1.39 0.16005 2.985 1.5945 3.41" fill="#0068C9"/>
<path d="m207.26 32.256c-2.539-2.6912-6.6069-3.2406-9.7657-1.319l-3.4153 2.0777c-1.5191 0.92346-3.4808 0.6218-4.6534-0.71682l-13.706-15.642-11.08-11.496c-6.8013-7.0558-18.144-6.8477-24.683 0.45362l-33.955 37.915c0.18918 0.30279 0.47275 0.55279 0.83869 0.69344 0.73038 0.28168 1.551 0.18929 2.2005-0.24736l12.192-8.2014c1.4912-1.003 3.4544-0.93817 4.8765 0.16063l4.2608 3.293c1.1651 0.90046 2.8617 0.49284 3.4932-0.83899l2.3442-4.9461c0.2659-0.56109 1.0267-0.64744 1.4111-0.16063l1.2656 1.6033c0.58483 0.7402 1.744 0.59653 2.1306-0.26433l3.594-7.997c0.47162-1.0494 1.9922-0.93779 2.307 0.16893l2.5913 9.1196c0.1809 0.63688 0.94738 0.88688 1.4668 0.47851l5.55-4.3598c0.69239-0.54412 1.6559-0.57806 2.3844-0.083711l2.8753 1.9502c1.2061 0.81788 2.8485 0.46456 3.6135-0.77753l2.7444-4.4544c0.79018-1.2824 2.442-1.7229 3.7628-1.0026l17.228 9.3933c1.2599 0.68703 2.2626 1.7658 2.8572 3.0739l2.1704 4.776c0.3005 0.66139 1.2573 0.60106 1.4724-0.093138l0.74617-2.4065c0.19181-0.61916 0.7631-1.0407 1.4092-1.0407h0.96243c0.94362 0 1.8447 0.3948 2.486 1.0894l0.10719 0.11576c0.61492 0.66592 1.7037 0.51018 2.1088-0.30128l1.7379-3.4853c0.31705-0.63613 1.1783-0.74209 1.6398-0.20249l1.0899 1.2749c0.32758 0.38311 0.95039 0.22361 1.0549-0.26961l0.18805-0.89028c0.095905-0.45325 0.65704-0.61652 0.98011-0.28507l9.751 10.016c0.79243 0.81373 1.8421 1.3258 2.9697 1.4495l1.1381 0.12406-16.742-17.744z" fill="#B8DDFF"/>
<path d="m140.2 5.358-34.203 37.79c0.19056 0.30218 0.47658 0.55136 0.84481 0.69155 0.73571 0.28075 1.5623 0.18867 2.2166-0.24693l12.281-8.1745c1.5021-0.99973 3.4796-0.93509 4.912 0.16011l4.2919 3.2826c0.55159 0.42169 1.2202 0.55173 1.8412 0.43785-0.76412-4.5698-0.1557-9.2708 1.7696-13.51l4.454-9.8075c0.40422-0.88999 0.9005-1.7356 1.4805-2.5238l9.9086-13.458c-3.6437 0.61074-7.1199 2.4005-9.7968 5.358" fill="#3CA1FF"/>
<path d="m203.99 30.317c-2.0906-0.60723-4.3992-0.35263-6.3644 0.85136l-3.4838 2.1352c-1.55 0.94901-3.5509 0.639-4.7476-0.73627l-1.7415-2.0023-1.918 0.30148c-1.626 0.25498-2.7433 1.676-2.7353 3.2419l6.0959 3.3481c1.2849 0.70604 2.3082 1.8147 2.9148 3.159l2.2138 4.9082c0.30694 0.67969 1.2826 0.61769 1.5021-0.095715l0.7616-2.4731c0.19568-0.6359 0.7781-1.0691 1.4372-1.0691h0.98183c0.2045 0 0.40593 0.0217 0.60467 0.057739l0.60851-4.4556c0.25783-1.8891 1.138-3.6352 2.4993-4.957l0.8836-0.85833c0.38598-0.37472 0.53791-0.87693 0.48727-1.3555" fill="#3CA1FF"/>
</g>
</g>
</svg>
